X:36
T:Galway Rambler, The
T:Walsh's Favorite
T:Wellington's
M:C|
E:7
Z:Boston.  From the playing of Paddy Canny and P.J. Hayes.   
R:reel
K:G
G2 dG eGdG|G2dB AGEF|GFGA BABd|gedB AGEF|G2 dG eGdG|G2dB AGEF|GFGA BABd|gedB AGEF||
g2 bg agab|gabg agef|g2 bg agab|gedB AGED|gabg gabg|gabg a2 ga|(3bag af gbaf|gedB AGED||
<end>
<start>
